packages/symbols/svgs/solid/book-bookmark-solid.svg

<svg width="16" height="16" viewBox="0 0 16 16" xmlns="http://www.w3.org/2000/svg"><g clip-path="url(#a)"><path d="M13 0v6l-2-1-2 1V0H3C1.3 0 0 1.3 0 3v10c0 1.7 1.3 3 3 3h10c1.7 0 3-1.3 3-3V3c0-1.7-1.3-3-3-3Zm1 13c0 .6-.4 1-1 1H3c-.6 0-1-.4-1-1s.4-1 1-1h10c.6 0 .9-.1 1-.2V13Z"/></g><defs><clipPath id="a"><path fill="#fff" d="M0 0h16v16H0z"/></clipPath></defs></svg>

<svg width="16" height="16" viewBox="0 0 16 16" fill="none" xmlns="http://www.w3.org/2000/svg">
<g clip-path="url(#clip0_1279_3882)">
<path d="M13 0V6L11 5L9 6V0H3C1.3 0 0 1.3 0 3V13C0 14.7 1.3 16 3 16H13C14.7 16 16 14.7 16 13V3C16 1.3 14.7 0 13 0ZM14 13C14 13.6 13.6 14 13 14H3C2.4 14 2 13.6 2 13C2 12.4 2.4 12 3 12H13C13.6 12 13.9 11.9 14 11.8V13Z" fill="black"/>
</g>
<defs>
<clipPath id="clip0_1279_3882">
<rect width="16" height="16" fill="white"/>
</clipPath>
</defs>
</svg>
